images/51003159.svg

<?xml version="1.0" encoding="UTF-8"?>
<svg xmlns="http://www.w3.org/2000/svg" xmlns:xlink="http://www.w3.org/1999/xlink" width="300pt" height="300pt" viewBox="0 0 300 300" version="1.1">
<defs>
<g>
<symbol overflow="visible" id="glyph0-0">
<path style="stroke:none;" d="M 0.546875 1.9375 L 0.546875 -7.75 L 6.046875 -7.75 L 6.046875 1.9375 Z M 1.171875 1.328125 L 5.4375 1.328125 L 5.4375 -7.140625 L 1.171875 -7.140625 Z M 1.171875 1.328125 "/>
</symbol>
<symbol overflow="visible" id="glyph0-1">
<path style="stroke:none;" d="M 1.078125 -8.015625 L 5.6875 -8.015625 L 5.6875 -7.109375 L 2.171875 -7.109375 L 2.171875 -4.75 L 5.34375 -4.75 L 5.34375 -3.828125 L 2.171875 -3.828125 L 2.171875 0 L 1.078125 0 Z M 1.078125 -8.015625 "/>
</symbol>
<symbol overflow="visible" id="glyph0-2">
<path style="stroke:none;" d="M 1.078125 -8.015625 L 2.546875 -8.015625 L 6.09375 -1.3125 L 6.09375 -8.015625 L 7.15625 -8.015625 L 7.15625 0 L 5.6875 0 L 2.125 -6.703125 L 2.125 0 L 1.078125 0 Z M 1.078125 -8.015625 "/>
</symbol>
<symbol overflow="visible" id="glyph0-3">
<path style="stroke:none;" d="M 1.078125 -8.015625 L 2.171875 -8.015625 L 2.171875 -4.734375 L 6.109375 -4.734375 L 6.109375 -8.015625 L 7.1875 -8.015625 L 7.1875 0 L 6.109375 0 L 6.109375 -3.8125 L 2.171875 -3.8125 L 2.171875 0 L 1.078125 0 Z M 1.078125 -8.015625 "/>
</symbol>
<symbol overflow="visible" id="glyph0-4">
<path style="stroke:none;" d="M 4.328125 -7.28125 C 3.546875 -7.28125 2.921875 -6.984375 2.453125 -6.390625 C 1.992188 -5.804688 1.765625 -5.007812 1.765625 -4 C 1.765625 -2.988281 1.992188 -2.1875 2.453125 -1.59375 C 2.921875 -1.007812 3.546875 -0.71875 4.328125 -0.71875 C 5.117188 -0.71875 5.742188 -1.007812 6.203125 -1.59375 C 6.660156 -2.1875 6.890625 -2.988281 6.890625 -4 C 6.890625 -5.007812 6.660156 -5.804688 6.203125 -6.390625 C 5.742188 -6.984375 5.117188 -7.28125 4.328125 -7.28125 Z M 4.328125 -8.171875 C 5.453125 -8.171875 6.351562 -7.789062 7.03125 -7.03125 C 7.707031 -6.28125 8.046875 -5.269531 8.046875 -4 C 8.046875 -2.738281 7.707031 -1.726562 7.03125 -0.96875 C 6.351562 -0.21875 5.453125 0.15625 4.328125 0.15625 C 3.203125 0.15625 2.300781 -0.21875 1.625 -0.96875 C 0.957031 -1.71875 0.625 -2.726562 0.625 -4 C 0.625 -5.269531 0.957031 -6.28125 1.625 -7.03125 C 2.300781 -7.789062 3.203125 -8.171875 4.328125 -8.171875 Z M 4.328125 -8.171875 "/>
</symbol>
</g>
</defs>
<g id="surface16757">
<rect x="0" y="0" width="300" height="300" style="fill:rgb(100%,100%,100%);fill-opacity:1;stroke:none;"/>
<path style="fill:none;stroke-width:1.2;stroke-linecap:butt;stroke-linejoin:miter;stroke:rgb(20%,80%,80%);stroke-opacity:1;stroke-miterlimit:10;" d="M 93.933594 179.894531 L 85.636719 169.960938 "/>
<path style="fill:none;stroke-width:1.2;stroke-linecap:butt;stroke-linejoin:miter;stroke:rgb(0%,0%,0%);stroke-opacity:1;stroke-miterlimit:10;" d="M 85.636719 169.960938 L 77.339844 160.027344 "/>
<path style=" stroke:none;fill-rule:nonzero;fill:rgb(100%,100%,100%);fill-opacity:1;" d="M 90.933594 173.394531 L 97.933594 173.394531 L 97.933594 186.394531 L 90.933594 186.394531 Z M 90.933594 173.394531 "/>
<g style="fill:rgb(20%,80%,80%);fill-opacity:1;">
  <use xlink:href="#glyph0-1" x="90.933594" y="183.295898"/>
</g>
<path style="fill:none;stroke-width:1.2;stroke-linecap:butt;stroke-linejoin:miter;stroke:rgb(0%,0%,0%);stroke-opacity:1;stroke-miterlimit:10;" d="M 77.339844 160.027344 L 51.839844 164.464844 "/>
<path style="fill:none;stroke-width:1.2;stroke-linecap:butt;stroke-linejoin:miter;stroke:rgb(0%,0%,0%);stroke-opacity:1;stroke-miterlimit:10;" d="M 73.746094 154.472656 L 53.347656 158.019531 "/>
<path style="fill:none;stroke-width:1.2;stroke-linecap:butt;stroke-linejoin:miter;stroke:rgb(0%,0%,0%);stroke-opacity:1;stroke-miterlimit:10;" d="M 86.25 135.726562 L 77.339844 160.027344 "/>
<path style="fill:none;stroke-width:1.2;stroke-linecap:butt;stroke-linejoin:miter;stroke:rgb(0%,0%,0%);stroke-opacity:1;stroke-miterlimit:10;" d="M 51.839844 164.464844 L 35.25 144.597656 "/>
<path style="fill:none;stroke-width:1.2;stroke-linecap:butt;stroke-linejoin:miter;stroke:rgb(0%,0%,0%);stroke-opacity:1;stroke-miterlimit:10;" d="M 35.25 144.597656 L 44.160156 120.296875 "/>
<path style="fill:none;stroke-width:1.2;stroke-linecap:butt;stroke-linejoin:miter;stroke:rgb(0%,0%,0%);stroke-opacity:1;stroke-miterlimit:10;" d="M 41.859375 144.265625 L 48.984375 124.824219 "/>
<path style="fill:none;stroke-width:1.2;stroke-linecap:butt;stroke-linejoin:miter;stroke:rgb(0%,0%,0%);stroke-opacity:1;stroke-miterlimit:10;" d="M 44.160156 120.296875 L 69.660156 115.859375 "/>
<path style="fill:none;stroke-width:1.2;stroke-linecap:butt;stroke-linejoin:miter;stroke:rgb(0%,0%,0%);stroke-opacity:1;stroke-miterlimit:10;" d="M 69.660156 115.859375 L 86.25 135.726562 "/>
<path style="fill:none;stroke-width:1.2;stroke-linecap:butt;stroke-linejoin:miter;stroke:rgb(0%,0%,0%);stroke-opacity:1;stroke-miterlimit:10;" d="M 66.644531 121.75 L 79.917969 137.644531 "/>
<path style="fill:none;stroke-width:1.2;stroke-linecap:butt;stroke-linejoin:miter;stroke:rgb(0%,0%,0%);stroke-opacity:1;stroke-miterlimit:10;" d="M 86.25 135.726562 L 99 133.507812 "/>
<path style="fill:none;stroke-width:1.2;stroke-linecap:butt;stroke-linejoin:miter;stroke:rgb(0%,0%,100%);stroke-opacity:1;stroke-miterlimit:10;" d="M 99 133.507812 L 111.75 131.289062 "/>
<path style="fill:none;stroke-width:1.2;stroke-linecap:butt;stroke-linejoin:miter;stroke:rgb(0%,0%,100%);stroke-opacity:1;stroke-miterlimit:10;" d="M 111.75 131.289062 L 120.046875 141.222656 "/>
<path style="fill:none;stroke-width:1.2;stroke-linecap:butt;stroke-linejoin:miter;stroke:rgb(0%,0%,0%);stroke-opacity:1;stroke-miterlimit:10;" d="M 120.046875 141.222656 L 128.339844 151.15625 "/>
<path style=" stroke:none;fill-rule:nonzero;fill:rgb(100%,100%,100%);fill-opacity:1;" d="M 103.75 124.789062 L 120.75 124.789062 L 120.75 137.789062 L 103.75 137.789062 Z M 103.75 124.789062 "/>
<g style="fill:rgb(0%,0%,100%);fill-opacity:1;">
  <use xlink:href="#glyph0-2" x="103.75" y="134.69043"/>
  <use xlink:href="#glyph0-3" x="111.733398" y="134.69043"/>
</g>
<path style="fill:none;stroke-width:1.2;stroke-linecap:butt;stroke-linejoin:miter;stroke:rgb(0%,0%,0%);stroke-opacity:1;stroke-miterlimit:10;" d="M 125.484375 150.109375 L 121.027344 162.257812 "/>
<path style="fill:none;stroke-width:1.2;stroke-linecap:butt;stroke-linejoin:miter;stroke:rgb(100%,0%,0%);stroke-opacity:1;stroke-miterlimit:10;" d="M 121.027344 162.257812 L 116.574219 174.410156 "/>
<path style="fill:none;stroke-width:1.2;stroke-linecap:butt;stroke-linejoin:miter;stroke:rgb(0%,0%,0%);stroke-opacity:1;stroke-miterlimit:10;" d="M 131.199219 152.203125 L 126.746094 164.355469 "/>
<path style="fill:none;stroke-width:1.2;stroke-linecap:butt;stroke-linejoin:miter;stroke:rgb(100%,0%,0%);stroke-opacity:1;stroke-miterlimit:10;" d="M 126.746094 164.355469 L 122.292969 176.507812 "/>
<path style="fill:none;stroke-width:1.2;stroke-linecap:butt;stroke-linejoin:miter;stroke:rgb(0%,0%,0%);stroke-opacity:1;stroke-miterlimit:10;" d="M 128.339844 151.15625 L 141.089844 148.9375 "/>
<path style="fill:none;stroke-width:1.2;stroke-linecap:butt;stroke-linejoin:miter;stroke:rgb(0%,0%,100%);stroke-opacity:1;stroke-miterlimit:10;" d="M 141.089844 148.9375 L 153.839844 146.722656 "/>
<path style=" stroke:none;fill-rule:nonzero;fill:rgb(100%,100%,100%);fill-opacity:1;" d="M 110.433594 168.957031 L 119.433594 168.957031 L 119.433594 181.957031 L 110.433594 181.957031 Z M 110.433594 168.957031 "/>
<g style="fill:rgb(100%,0%,0%);fill-opacity:1;">
  <use xlink:href="#glyph0-4" x="110.433594" y="178.858398"/>
</g>
<path style="fill:none;stroke-width:1.2;stroke-linecap:butt;stroke-linejoin:miter;stroke:rgb(0%,0%,100%);stroke-opacity:1;stroke-miterlimit:10;" d="M 153.839844 146.722656 L 162.136719 156.652344 "/>
<path style="fill:none;stroke-width:1.2;stroke-linecap:butt;stroke-linejoin:miter;stroke:rgb(0%,0%,0%);stroke-opacity:1;stroke-miterlimit:10;" d="M 162.136719 156.652344 L 170.433594 166.585938 "/>
<path style="fill:none;stroke-width:1.2;stroke-linecap:butt;stroke-linejoin:miter;stroke:rgb(0%,0%,100%);stroke-opacity:1;stroke-miterlimit:10;" d="M 153.839844 146.722656 L 158.296875 134.570312 "/>
<path style="fill:none;stroke-width:1.2;stroke-linecap:butt;stroke-linejoin:miter;stroke:rgb(0%,0%,0%);stroke-opacity:1;stroke-miterlimit:10;" d="M 158.296875 134.570312 L 162.75 122.417969 "/>
<path style=" stroke:none;fill-rule:nonzero;fill:rgb(100%,100%,100%);fill-opacity:1;" d="M 149.839844 140.222656 L 157.839844 140.222656 L 157.839844 153.222656 L 149.839844 153.222656 Z M 149.839844 140.222656 "/>
<g style="fill:rgb(0%,0%,100%);fill-opacity:1;">
  <use xlink:href="#glyph0-2" x="149.839844" y="150.124023"/>
</g>
<path style="fill:none;stroke-width:1.2;stroke-linecap:butt;stroke-linejoin:miter;stroke:rgb(0%,0%,0%);stroke-opacity:1;stroke-miterlimit:10;" d="M 170.433594 166.585938 L 161.523438 190.886719 "/>
<path style="fill:none;stroke-width:1.2;stroke-linecap:butt;stroke-linejoin:miter;stroke:rgb(0%,0%,0%);stroke-opacity:1;stroke-miterlimit:10;" d="M 175.261719 171.113281 L 168.132812 190.554688 "/>
<path style="fill:none;stroke-width:1.2;stroke-linecap:butt;stroke-linejoin:miter;stroke:rgb(0%,0%,0%);stroke-opacity:1;stroke-miterlimit:10;" d="M 195.933594 162.152344 L 170.433594 166.585938 "/>
<path style="fill:none;stroke-width:1.2;stroke-linecap:butt;stroke-linejoin:miter;stroke:rgb(0%,0%,0%);stroke-opacity:1;stroke-miterlimit:10;" d="M 161.523438 190.886719 L 178.117188 210.753906 "/>
<path style="fill:none;stroke-width:1.2;stroke-linecap:butt;stroke-linejoin:miter;stroke:rgb(0%,0%,0%);stroke-opacity:1;stroke-miterlimit:10;" d="M 178.117188 210.753906 L 203.617188 206.316406 "/>
<path style="fill:none;stroke-width:1.2;stroke-linecap:butt;stroke-linejoin:miter;stroke:rgb(0%,0%,0%);stroke-opacity:1;stroke-miterlimit:10;" d="M 179.621094 204.308594 L 200.023438 200.761719 "/>
<path style="fill:none;stroke-width:1.2;stroke-linecap:butt;stroke-linejoin:miter;stroke:rgb(0%,0%,0%);stroke-opacity:1;stroke-miterlimit:10;" d="M 203.617188 206.316406 L 211.910156 216.25 "/>
<path style="fill:none;stroke-width:1.2;stroke-linecap:butt;stroke-linejoin:miter;stroke:rgb(20%,80%,80%);stroke-opacity:1;stroke-miterlimit:10;" d="M 211.910156 216.25 L 220.207031 226.183594 "/>
<path style="fill:none;stroke-width:1.2;stroke-linecap:butt;stroke-linejoin:miter;stroke:rgb(0%,0%,0%);stroke-opacity:1;stroke-miterlimit:10;" d="M 203.617188 206.316406 L 212.523438 182.015625 "/>
<path style=" stroke:none;fill-rule:nonzero;fill:rgb(100%,100%,100%);fill-opacity:1;" d="M 217.207031 219.683594 L 224.207031 219.683594 L 224.207031 232.683594 L 217.207031 232.683594 Z M 217.207031 219.683594 "/>
<g style="fill:rgb(20%,80%,80%);fill-opacity:1;">
  <use xlink:href="#glyph0-1" x="217.207031" y="229.584961"/>
</g>
<path style="fill:none;stroke-width:1.2;stroke-linecap:butt;stroke-linejoin:miter;stroke:rgb(0%,0%,0%);stroke-opacity:1;stroke-miterlimit:10;" d="M 212.523438 182.015625 L 195.933594 162.152344 "/>
<path style="fill:none;stroke-width:1.2;stroke-linecap:butt;stroke-linejoin:miter;stroke:rgb(0%,0%,0%);stroke-opacity:1;stroke-miterlimit:10;" d="M 206.191406 183.933594 L 192.917969 168.042969 "/>
<path style="fill:none;stroke-width:1.2;stroke-linecap:butt;stroke-linejoin:miter;stroke:rgb(0%,0%,0%);stroke-opacity:1;stroke-miterlimit:10;" d="M 162.75 122.417969 L 175.5 120.203125 "/>
<path style="fill:none;stroke-width:1.2;stroke-linecap:butt;stroke-linejoin:miter;stroke:rgb(0%,0%,100%);stroke-opacity:1;stroke-miterlimit:10;" d="M 175.5 120.203125 L 188.25 117.984375 "/>
<path style="fill:none;stroke-width:1.2;stroke-linecap:butt;stroke-linejoin:miter;stroke:rgb(0%,0%,0%);stroke-opacity:1;stroke-miterlimit:10;" d="M 164.257812 115.976562 L 174.457031 114.203125 "/>
<path style="fill:none;stroke-width:1.2;stroke-linecap:butt;stroke-linejoin:miter;stroke:rgb(0%,0%,100%);stroke-opacity:1;stroke-miterlimit:10;" d="M 174.457031 114.203125 L 184.65625 112.425781 "/>
<path style="fill:none;stroke-width:1.2;stroke-linecap:butt;stroke-linejoin:miter;stroke:rgb(0%,0%,0%);stroke-opacity:1;stroke-miterlimit:10;" d="M 146.160156 102.554688 L 162.75 122.417969 "/>
<path style="fill:none;stroke-width:1.2;stroke-linecap:butt;stroke-linejoin:miter;stroke:rgb(0%,0%,100%);stroke-opacity:1;stroke-miterlimit:10;" d="M 188.25 117.984375 L 192.703125 105.832031 "/>
<path style="fill:none;stroke-width:1.2;stroke-linecap:butt;stroke-linejoin:miter;stroke:rgb(0%,0%,0%);stroke-opacity:1;stroke-miterlimit:10;" d="M 192.703125 105.832031 L 197.160156 93.683594 "/>
<path style=" stroke:none;fill-rule:nonzero;fill:rgb(100%,100%,100%);fill-opacity:1;" d="M 184.25 111.484375 L 192.25 111.484375 L 192.25 124.484375 L 184.25 124.484375 Z M 184.25 111.484375 "/>
<g style="fill:rgb(0%,0%,100%);fill-opacity:1;">
  <use xlink:href="#glyph0-2" x="184.25" y="121.385742"/>
</g>
<path style="fill:none;stroke-width:1.2;stroke-linecap:butt;stroke-linejoin:miter;stroke:rgb(0%,0%,0%);stroke-opacity:1;stroke-miterlimit:10;" d="M 197.160156 93.683594 L 188.863281 83.75 "/>
<path style="fill:none;stroke-width:1.2;stroke-linecap:butt;stroke-linejoin:miter;stroke:rgb(0%,0%,100%);stroke-opacity:1;stroke-miterlimit:10;" d="M 188.863281 83.75 L 180.566406 73.816406 "/>
<path style="fill:none;stroke-width:1.2;stroke-linecap:butt;stroke-linejoin:miter;stroke:rgb(0%,0%,0%);stroke-opacity:1;stroke-miterlimit:10;" d="M 190.824219 95.597656 L 184.1875 87.652344 "/>
<path style="fill:none;stroke-width:1.2;stroke-linecap:butt;stroke-linejoin:miter;stroke:rgb(0%,0%,100%);stroke-opacity:1;stroke-miterlimit:10;" d="M 184.1875 87.652344 L 177.550781 79.707031 "/>
<path style="fill:none;stroke-width:1.2;stroke-linecap:butt;stroke-linejoin:miter;stroke:rgb(0%,0%,0%);stroke-opacity:1;stroke-miterlimit:10;" d="M 197.160156 93.683594 L 209.910156 91.464844 "/>
<path style="fill:none;stroke-width:1.2;stroke-linecap:butt;stroke-linejoin:miter;stroke:rgb(0%,0%,100%);stroke-opacity:1;stroke-miterlimit:10;" d="M 209.910156 91.464844 L 222.660156 89.246094 "/>
<path style="fill:none;stroke-width:1.2;stroke-linecap:butt;stroke-linejoin:miter;stroke:rgb(0%,0%,100%);stroke-opacity:1;stroke-miterlimit:10;" d="M 180.566406 73.816406 L 167.816406 76.035156 "/>
<path style="fill:none;stroke-width:1.2;stroke-linecap:butt;stroke-linejoin:miter;stroke:rgb(0%,0%,0%);stroke-opacity:1;stroke-miterlimit:10;" d="M 167.816406 76.035156 L 155.066406 78.25 "/>
<path style=" stroke:none;fill-rule:nonzero;fill:rgb(100%,100%,100%);fill-opacity:1;" d="M 176.566406 67.316406 L 184.566406 67.316406 L 184.566406 80.316406 L 176.566406 80.316406 Z M 176.566406 67.316406 "/>
<g style="fill:rgb(0%,0%,100%);fill-opacity:1;">
  <use xlink:href="#glyph0-2" x="176.566406" y="77.217773"/>
</g>
<path style="fill:none;stroke-width:1.2;stroke-linecap:butt;stroke-linejoin:miter;stroke:rgb(0%,0%,0%);stroke-opacity:1;stroke-miterlimit:10;" d="M 155.066406 78.25 L 146.160156 102.554688 "/>
<path style="fill:none;stroke-width:1.2;stroke-linecap:butt;stroke-linejoin:miter;stroke:rgb(0%,0%,0%);stroke-opacity:1;stroke-miterlimit:10;" d="M 159.894531 82.777344 L 152.765625 102.21875 "/>
<path style=" stroke:none;fill-rule:nonzero;fill:rgb(0%,0%,0%);fill-opacity:1;" d="M 239.25 109.113281 L 226.164062 86.316406 L 219.152344 92.175781 Z M 239.25 109.113281 "/>
<path style=" stroke:none;fill-rule:nonzero;fill:rgb(100%,100%,100%);fill-opacity:1;" d="M 214.660156 82.746094 L 231.660156 82.746094 L 231.660156 95.746094 L 214.660156 95.746094 Z M 214.660156 82.746094 "/>
<g style="fill:rgb(0%,0%,100%);fill-opacity:1;">
  <use xlink:href="#glyph0-2" x="214.660156" y="92.647461"/>
  <use xlink:href="#glyph0-3" x="222.643555" y="92.647461"/>
</g>
<path style="fill:none;stroke-width:1.2;stroke-linecap:butt;stroke-linejoin:miter;stroke:rgb(0%,0%,0%);stroke-opacity:1;stroke-miterlimit:10;" d="M 239.25 109.113281 L 230.339844 133.414062 "/>
<path style="fill:none;stroke-width:1.2;stroke-linecap:butt;stroke-linejoin:miter;stroke:rgb(0%,0%,0%);stroke-opacity:1;stroke-miterlimit:10;" d="M 239.25 109.113281 L 264.75 104.675781 "/>
<path style="fill:none;stroke-width:1.2;stroke-linecap:butt;stroke-linejoin:miter;stroke:rgb(0%,0%,0%);stroke-opacity:1;stroke-miterlimit:10;" d="M 230.339844 133.414062 L 238.636719 143.347656 "/>
<path style="fill:none;stroke-width:1.2;stroke-linecap:butt;stroke-linejoin:miter;stroke:rgb(100%,0%,0%);stroke-opacity:1;stroke-miterlimit:10;" d="M 238.636719 143.347656 L 246.933594 153.277344 "/>
<path style="fill:none;stroke-width:1.2;stroke-linecap:butt;stroke-linejoin:miter;stroke:rgb(100%,0%,0%);stroke-opacity:1;stroke-miterlimit:10;" d="M 246.933594 153.277344 L 242.480469 165.429688 "/>
<path style="fill:none;stroke-width:1.2;stroke-linecap:butt;stroke-linejoin:miter;stroke:rgb(0%,0%,0%);stroke-opacity:1;stroke-miterlimit:10;" d="M 242.480469 165.429688 L 238.023438 177.582031 "/>
<path style=" stroke:none;fill-rule:nonzero;fill:rgb(100%,100%,100%);fill-opacity:1;" d="M 242.933594 146.777344 L 251.933594 146.777344 L 251.933594 159.777344 L 242.933594 159.777344 Z M 242.933594 146.777344 "/>
<g style="fill:rgb(100%,0%,0%);fill-opacity:1;">
  <use xlink:href="#glyph0-4" x="242.933594" y="156.678711"/>
</g>
</g>
</svg>

<svg xmlns="http://www.w3.org/2000/svg" xmlns:xlink="http://www.w3.org/1999/xlink" width="300pt" height="300pt" viewBox="0 0 300 300"><defs><symbol overflow="visible"><path d="M.547 1.938V-7.75h5.5v9.688zm.625-.61h4.266v-8.47H1.171zm0 0"/></symbol><symbol overflow="visible" id="a"><path d="M1.078-8.016h4.61v.907H2.171v2.36h3.172v.922H2.172V0H1.078zm0 0"/></symbol><symbol overflow="visible" id="b"><path d="M1.078-8.016h1.47l3.546 6.704v-6.704h1.062V0H5.688L2.124-6.703V0H1.078zm0 0"/></symbol><symbol overflow="visible" id="c"><path d="M1.078-8.016h1.094v3.282H6.11v-3.282h1.077V0H6.11v-3.813H2.17V0H1.078zm0 0"/></symbol><symbol overflow="visible" id="d"><path d="M4.328-7.28c-.78 0-1.406.296-1.875.89-.46.585-.687 1.382-.687 2.39 0 1.012.226 1.813.687 2.406.47.586 1.094.875 1.875.875.79 0 1.414-.288 1.875-.874.457-.593.688-1.394.688-2.406 0-1.008-.23-1.805-.687-2.39-.46-.594-1.086-.89-1.875-.89zm0-.892c1.125 0 2.024.383 2.703 1.14C7.708-6.28 8.048-5.27 8.048-4c0 1.262-.34 2.273-1.016 3.03C6.353-.22 5.454.157 4.33.157S2.3-.22 1.625-.97c-.668-.75-1-1.757-1-3.03 0-1.27.332-2.28 1-3.03.676-.76 1.578-1.142 2.703-1.142zm0 0"/></symbol></defs><g><path fill="#fff" d="M0 0h300v300H0z"/><path d="M93.934 179.895l-8.297-9.934" stroke-width="1.2" stroke="#3cc" stroke-miterlimit="10" fill="none"/><path d="M85.637 169.96l-8.297-9.933" stroke-width="1.2" stroke="#000" stroke-miterlimit="10" fill="none"/><path d="M90.934 173.395h7v13h-7zm0 0" fill="#fff"/><use xlink:href="#a" x="90.934" y="183.296" fill="#3cc"/><path d="M77.34 160.027l-25.5 4.438M73.746 154.473l-20.398 3.547M86.25 135.727l-8.91 24.3M51.84 164.465l-16.59-19.867M35.25 144.598l8.91-24.3M41.86 144.266l7.124-19.442M44.16 120.297l25.5-4.438M69.66 115.86l16.59 19.867M66.645 121.75l13.273 15.895M86.25 135.727l12.75-2.22" stroke-width="1.2" stroke="#000" stroke-miterlimit="10" fill="none"/><path d="M99 133.508l12.75-2.22M111.75 131.29l8.297 9.933" stroke-width="1.2" stroke="#00f" stroke-miterlimit="10" fill="none"/><path d="M120.047 141.223l8.293 9.933" stroke-width="1.2" stroke="#000" stroke-miterlimit="10" fill="none"/><path d="M103.75 124.79h17v13h-17zm0 0" fill="#fff"/><g fill="#00f"><use xlink:href="#b" x="103.75" y="134.69"/><use xlink:href="#c" x="111.733" y="134.69"/></g><path d="M125.484 150.11l-4.457 12.148" stroke-width="1.2" stroke="#000" stroke-miterlimit="10" fill="none"/><path d="M121.027 162.258l-4.453 12.152" stroke-width="1.2" stroke="#f00" stroke-miterlimit="10" fill="none"/><path d="M131.2 152.203l-4.454 12.152" stroke-width="1.2" stroke="#000" stroke-miterlimit="10" fill="none"/><path d="M126.746 164.355l-4.453 12.153" stroke-width="1.2" stroke="#f00" stroke-miterlimit="10" fill="none"/><path d="M128.34 151.156l12.75-2.22" stroke-width="1.2" stroke="#000" stroke-miterlimit="10" fill="none"/><path d="M141.09 148.938l12.75-2.215" stroke-width="1.2" stroke="#00f" stroke-miterlimit="10" fill="none"/><path d="M110.434 168.957h9v13h-9zm0 0" fill="#fff"/><use xlink:href="#d" x="110.434" y="178.858" fill="#f00"/><path d="M153.84 146.723l8.297 9.93" stroke-width="1.2" stroke="#00f" stroke-miterlimit="10" fill="none"/><path d="M162.137 156.652l8.297 9.934" stroke-width="1.2" stroke="#000" stroke-miterlimit="10" fill="none"/><path d="M153.84 146.723l4.457-12.153" stroke-width="1.2" stroke="#00f" stroke-miterlimit="10" fill="none"/><path d="M158.297 134.57l4.453-12.152" stroke-width="1.2" stroke="#000" stroke-miterlimit="10" fill="none"/><path d="M149.84 140.223h8v13h-8zm0 0" fill="#fff"/><use xlink:href="#b" x="149.84" y="150.124" fill="#00f"/><path d="M170.434 166.586l-8.91 24.3M175.262 171.113l-7.13 19.442M195.934 162.152l-25.5 4.434M161.523 190.887l16.594 19.867M178.117 210.754l25.5-4.438M179.62 204.31l20.403-3.548M203.617 206.316l8.293 9.934" stroke-width="1.2" stroke="#000" stroke-miterlimit="10" fill="none"/><path d="M211.91 216.25l8.297 9.934" stroke-width="1.2" stroke="#3cc" stroke-miterlimit="10" fill="none"/><path d="M203.617 206.316l8.906-24.3" stroke-width="1.2" stroke="#000" stroke-miterlimit="10" fill="none"/><path d="M217.207 219.684h7v13h-7zm0 0" fill="#fff"/><use xlink:href="#a" x="217.207" y="229.585" fill="#3cc"/><path d="M212.523 182.016l-16.59-19.864M206.19 183.934l-13.272-15.89M162.75 122.418l12.75-2.215" stroke-width="1.2" stroke="#000" stroke-miterlimit="10" fill="none"/><path d="M175.5 120.203l12.75-2.22" stroke-width="1.2" stroke="#00f" stroke-miterlimit="10" fill="none"/><path d="M164.258 115.977l10.2-1.774" stroke-width="1.2" stroke="#000" stroke-miterlimit="10" fill="none"/><path d="M174.457 114.203l10.2-1.777" stroke-width="1.2" stroke="#00f" stroke-miterlimit="10" fill="none"/><path d="M146.16 102.555l16.59 19.863" stroke-width="1.2" stroke="#000" stroke-miterlimit="10" fill="none"/><path d="M188.25 117.984l4.453-12.152" stroke-width="1.2" stroke="#00f" stroke-miterlimit="10" fill="none"/><path d="M192.703 105.832l4.457-12.148" stroke-width="1.2" stroke="#000" stroke-miterlimit="10" fill="none"/><path d="M184.25 111.484h8v13h-8zm0 0" fill="#fff"/><use xlink:href="#b" x="184.25" y="121.386" fill="#00f"/><path d="M197.16 93.684l-8.297-9.934" stroke-width="1.2" stroke="#000" stroke-miterlimit="10" fill="none"/><path d="M188.863 83.75l-8.297-9.934" stroke-width="1.2" stroke="#00f" stroke-miterlimit="10" fill="none"/><path d="M190.824 95.598l-6.637-7.946" stroke-width="1.2" stroke="#000" stroke-miterlimit="10" fill="none"/><path d="M184.188 87.652l-6.637-7.945" stroke-width="1.2" stroke="#00f" stroke-miterlimit="10" fill="none"/><path d="M197.16 93.684l12.75-2.22" stroke-width="1.2" stroke="#000" stroke-miterlimit="10" fill="none"/><path d="M209.91 91.465l12.75-2.22M180.566 73.816l-12.75 2.22" stroke-width="1.2" stroke="#00f" stroke-miterlimit="10" fill="none"/><path d="M167.816 76.035l-12.75 2.215" stroke-width="1.2" stroke="#000" stroke-miterlimit="10" fill="none"/><path d="M176.566 67.316h8v13h-8zm0 0" fill="#fff"/><use xlink:href="#b" x="176.566" y="77.218" fill="#00f"/><path d="M155.066 78.25l-8.906 24.305M159.895 82.777l-7.13 19.442" stroke-width="1.2" stroke="#000" stroke-miterlimit="10" fill="none"/><path d="M239.25 109.113l-13.086-22.797-7.012 5.86zm0 0"/><path d="M214.66 82.746h17v13h-17zm0 0" fill="#fff"/><g fill="#00f"><use xlink:href="#b" x="214.66" y="92.647"/><use xlink:href="#c" x="222.644" y="92.647"/></g><path d="M239.25 109.113l-8.91 24.3M239.25 109.113l25.5-4.437M230.34 133.414l8.297 9.934" stroke-width="1.2" stroke="#000" stroke-miterlimit="10" fill="none"/><path d="M238.637 143.348l8.297 9.93M246.934 153.277l-4.454 12.153" stroke-width="1.2" stroke="#f00" stroke-miterlimit="10" fill="none"/><path d="M242.48 165.43l-4.457 12.152" stroke-width="1.2" stroke="#000" stroke-miterlimit="10" fill="none"/><path d="M242.934 146.777h9v13h-9zm0 0" fill="#fff"/><use xlink:href="#d" x="242.934" y="156.679" fill="#f00"/></g></svg>
